X:1
T:Corn Rigs - Donegal
C:Con McGinley
M:C|    %(3/4, 4/4, 6/8)
L:1/8    %(1/8, 1/4)
V:1 clef=treble
K:G    %(D, C)
|:"G"DGBG "D"FGAB|cAFB AF D2|"G"DGBG "D"FGAB|cAFA "G"G2 G2:|
|"G"B/2d3/2 D2 "C"(3EGE "G"DB|"D"cAFB AF D2|"G"B/2D3/2 D2 "C"(3ege "G"DB
|"D"CAFA "G"G2 G2|
|"G"Bd d2 "C"(3ege "G"dB|"D"cAFB AF D2|"G"DGBG "D"FGAB|cAFA "G"G2[G2g2]||
